static/images/clients/svg/superfriendly-white.svg

<svg fill="none" height="32" viewBox="0 0 137 32" width="137" xmlns="http://www.w3.org/2000/svg"><path d="m25.2084 0h-25.2084v23.4666l12.6042 8.5334 12.3352-8.5334z" fill="#fff"/><path d="m17.3362 6.87619v-.00534h-7.98691c-3.43518 0-3.43518 3.62475-3.43518 3.62475 0 2.7671 1.79383 3.4159 2.46576 3.5627h-2.59081v2.6425c0 1.9277 1.38163 2.2915 2.21922 2.3346v.0253h.62134v-4.9607l.01211-3.0123c0-1.7518 2.23847-1.65668 2.23847-1.65668h5.8325v2.39738h-5.5222v2.5623h5.5133l-.0021.4532c0 1.7525-2.2381 1.6563-2.2381 1.6563h-3.2731v2.5605h4.8061c3.4341 0 3.4341-3.6261 3.4341-3.6261 0-3.0159-1.9655-3.4915-2.4494-3.567l2.5738-.0057v-2.64678c-.0018-1.92993-1.3831-2.29332-2.2189-2.33893z" fill="#282828"/><path d="m131.169 15.2228-.762-2.7201h.959v-2.0255h-4.976v2.0255h.849l1.838 6.0772h.749zm-8.387 3.3571h4.283v-2.0261h-1.158v-8.82555h-4.552v2.02541h1.425zm-.482-2.0261h-1.428v-8.82555h-4.601v2.02541h1.477v8.82624h4.553zm-7.042 2.1708c.728.0065 1.436-.2379 2.006-.6922v-1.4786h-.52c-.632 0-.965-.2494-.965-.969v-2.1124c0-.7211.333-.9697.965-.9697h.52v-1.4782c-.569-.4556-1.278-.7004-2.006-.6926-1.737 0-2.692.8679-2.692 3.0675v2.2573c0 2.1997.955 3.0679 2.692 3.0679zm-6.829-.1447h3.776v-2.0261h-.651v-3.443c0-1.9826-.839-2.7789-2.605-2.7789-.7-.0129-1.383.216-1.933.648v1.522h.453c.632 0 .96.2494.96.9698zm-.482 0v-2.0261h-1.414v-6.0766h-3.993v2.0255h.868v4.0511h-.868v2.0261zm-10.3078-3.242h4.2638v-1.9378c0-2.1975-1.271-3.0675-3.7597-3.0675h-.5041v2.0254h.5309c.7257 0 1.0128.2494 1.0128 1.2302v.1732h-1.5437zm4.2638 2.9086v-2.097c-1.151.3466-2.3438.5315-3.5452.5493-.9113 0-1.2006-.3181-1.2006-1.2298v-5.1371c-2.0112 0-3.1979 1.2587-3.1979 3.0675v2.2573c0 2.1558 1.2013 3.0672 4.2973 3.0672 1.2307-.0033 2.4564-.1635 3.6464-.4767zm-12.3718-8.49284h3.1252v-2.02541h-3.1252zm0 .72354v6.0766h-.8683v2.0261h4.8478v-2.0261h-.855v-6.0766zm-2.889 2.6044h2.4066v-2.6044h-.6605c-.6385-.001-1.2568.2236-1.7458.6342zm-4.4606 5.4983h5.151v-2.0261h-1.1721v-6.0766h-3.1252v6.0766h-.8551zm-4.4566-8.82624h2.3105v1.98944h2.517v-4.01485h-4.8275zm0 4.78654h3.3233v-2.3158h-3.3233zm-.4824-6.81195h-4.3109v2.02541h.8825v6.80014h-1.0278v2.0261h6.1931v-2.0261h-1.7365zm-6.3181 5.35335h2.407v-2.6044h-.6609c-.6385-.001-1.2568.2236-1.7457.6342zm-4.4612 5.4983h5.151v-2.0261h-1.1722v-6.0766h-3.9788v2.0255h.855v4.0511h-.855zm-4.9002-3.242h4.2635v-1.9378c0-2.1975-1.2712-3.0675-3.7572-3.0675h-.5038v2.0254h.5305c.7232 0 1.0104.2494 1.0104 1.2302v.1732h-1.5427zm4.2635 2.9086v-2.097c-1.1504.3466-2.3435.5315-3.5449.5493-.9117 0-1.201-.3181-1.201-1.2298v-5.1371c-2.0111 0-3.1975 1.2587-3.1975 3.0675v2.2573c0 2.1558 1.2006 3.0672 4.2973 3.0672 1.2307-.0033 2.456-.1635 3.6461-.4767zm63.6404 1.0563h-75.7604v2.0254h75.7604c1.837 0 2.72-.6056 3.255-1.9823l2.676-6.844h.725v-2.0247h-4.276v2.0255h.931l-2.4 6.0192c-.161.4197-.362.7816-.911.7816zm-81.905 0h-18.7909v2.0254h18.7912zm-14.3439-2.749c-.6216.0019-1.2408-.0758-1.8426-.2312v-1.6495h-2.6044v3.5018c1.4507.3833 2.9466.5682 4.447.5497zm.4824-6.85786c.5039-.00156 1.0062.05681 1.4963.17386v1.6927h2.5901v-3.38463c-1.3277-.38612-2.7026-.58577-4.0853-.59319zm9.0817.78126v2.0255h1.413v6.0772h3.9935v-2.0261h-.8679v-6.0766zm.4774 6.0766c-.6295 0-.9598-.2494-.9598-.969v-5.1076h-3.7643v2.0255h.6391v3.4437c0 1.9823.839 2.7789 2.6044 2.7789.7.0125 1.383-.2166 1.9338-.6488v-1.5227zm5.6526-4.0511h-.8682v-2.0255h3.9938v8.8263h1.1864v2.0254h-5.1802v-2.0254h.8682zm5.6142 6.2219c1.7361 0 2.6909-.8682 2.6909-3.0672v-2.2573c0-2.1996-.9548-3.0675-2.6909-3.0675-.7285-.0075-1.4372.2369-2.0062.6919v1.4782h.5202c.6345 0 .9648.2493.9648.9697v2.1124c0 .7211-.3303.969-.9648.969h-.5202v1.4786c.5695.454 1.2779.6984 2.0062.6922zm-20.8259 0c3.1252 0 4.489-1.1433 4.489-2.8794v-1.0129c0-1.5768-.7667-2.3008-2.6043-2.7924l-2.9361-.796c-.5066-.1303-.6804-.3901-.6804-.7667 0-.47771.311-.767 1.2494-.767v-2.12695c-3.1662 0-4.4178 1.11406-4.4178 3.02405v.8102c0 1.5775.7667 2.3008 2.6044 2.7928l2.8794.7813c.564.1446.6655.3619.6655.8105 0 .477-.2822.7517-1.2491.7517z" fill="#fff"/></svg>

<svg width="137" height="32" viewBox="0 0 137 32" fill="none" xmlns="http://www.w3.org/2000/svg">
<path d="M25.2084 0H0V23.4666L12.6042 32L24.9394 23.4666L25.2084 0Z" fill="white"/>
<path d="M17.3362 6.87619V6.87085H9.34929C5.91411 6.87085 5.91411 10.4956 5.91411 10.4956C5.91411 13.2627 7.70794 13.9115 8.37987 14.0583H5.78906V16.7008C5.78906 18.6285 7.17069 18.9923 8.00828 19.0354V19.0607H8.62962V14.1L8.64173 11.0877C8.64173 9.3359 10.8802 9.43102 10.8802 9.43102H16.7127V11.8284H11.1905V14.3907H16.7038L16.7017 14.8439C16.7017 16.5964 14.4636 16.5002 14.4636 16.5002H11.1905V19.0607H15.9966C19.4307 19.0607 19.4307 15.4346 19.4307 15.4346C19.4307 12.4187 17.4652 11.9431 16.9813 11.8676L19.5551 11.8619V9.21512C19.5533 7.28519 18.172 6.9218 17.3362 6.87619V6.87619Z" fill="#282828"/>
<path d="M131.169 15.2228L130.407 12.5027H131.366V10.4772H126.39V12.5027H127.239L129.077 18.5799H129.826L131.169 15.2228ZM122.782 18.5799H127.065V16.5538H125.907V7.72825H121.355V9.75366H122.78L122.782 18.5799ZM122.3 16.5538H120.872V7.72825H116.271V9.75366H117.748V18.5799H122.301L122.3 16.5538ZM115.258 18.7246C115.986 18.7311 116.694 18.4867 117.264 18.0324V16.5538H116.744C116.112 16.5538 115.779 16.3044 115.779 15.5848V13.4724C115.779 12.7513 116.112 12.5027 116.744 12.5027H117.264V11.0245C116.695 10.5689 115.986 10.3241 115.258 10.3319C113.521 10.3319 112.566 11.1998 112.566 13.3994V15.6567C112.566 17.8564 113.521 18.7246 115.258 18.7246ZM108.429 18.5799H112.205V16.5538H111.554V13.1108C111.554 11.1282 110.715 10.3319 108.949 10.3319C108.249 10.319 107.566 10.5479 107.016 10.9799V12.5019H107.469C108.101 12.5019 108.429 12.7513 108.429 13.4717L108.429 18.5799ZM107.947 18.5799V16.5538H106.533V10.4772H102.54V12.5027H103.408V16.5538H102.54V18.5799H107.947ZM97.6392 15.3379H101.903V13.4001C101.903 11.2026 100.632 10.3326 98.1433 10.3326H97.6392V12.358H98.1701C98.8958 12.358 99.1829 12.6074 99.1829 13.5882V13.7614H97.6392V15.3379ZM101.903 18.2465V16.1495C100.752 16.4961 99.5592 16.681 98.3578 16.6988C97.4465 16.6988 97.1572 16.3807 97.1572 15.469V10.3319C95.146 10.3319 93.9593 11.5906 93.9593 13.3994V15.6567C93.9593 17.8125 95.1606 18.7239 98.2566 18.7239C99.4873 18.7206 100.713 18.5604 101.903 18.2472V18.2465ZM89.5312 9.75366H92.6564V7.72825H89.5312V9.75366ZM89.5312 10.4772V16.5538H88.6629V18.5799H93.5107V16.5538H92.6557V10.4772H89.5312ZM86.6422 13.0816H89.0488V10.4772H88.3883C87.7498 10.4762 87.1315 10.7008 86.6425 11.1114L86.6422 13.0816ZM82.1816 18.5799H87.3326V16.5538H86.1605V10.4772H83.0353V16.5538H82.1802L82.1816 18.5799ZM77.725 9.75366H80.0355V11.7431H82.5525V7.72825H77.725V9.75366ZM77.725 14.5402H81.0483V12.2244H77.725V14.5402ZM77.2426 7.72825H72.9317V9.75366H73.8142V16.5538H72.7864V18.5799H78.9795V16.5538H77.243L77.2426 7.72825ZM70.9245 13.0816H73.3315V10.4772H72.6706C72.0321 10.4762 71.4138 10.7008 70.9249 11.1114L70.9245 13.0816ZM66.4633 18.5799H71.6143V16.5538H70.4421V10.4772H66.4633V12.5027H67.3183V16.5538H66.4633V18.5799ZM61.5631 15.3379H65.8266V13.4001C65.8266 11.2026 64.5554 10.3326 62.0694 10.3326H61.5656V12.358H62.0961C62.8193 12.358 63.1065 12.6074 63.1065 13.5882V13.7614H61.5638L61.5631 15.3379ZM65.8266 18.2465V16.1495C64.6762 16.4961 63.4831 16.681 62.2817 16.6988C61.37 16.6988 61.0807 16.3807 61.0807 15.469V10.3319C59.0696 10.3319 57.8832 11.5906 57.8832 13.3994V15.6567C57.8832 17.8125 59.0838 18.7239 62.1805 18.7239C63.4112 18.7206 64.6365 18.5604 65.8266 18.2472V18.2465ZM129.467 19.3028H53.7066V21.3282H129.467C131.304 21.3282 132.187 20.7226 132.722 19.3459L135.398 12.5019H136.123V10.4772H131.847V12.5027H132.778L130.378 18.5219C130.217 18.9416 130.016 19.3035 129.467 19.3035V19.3028ZM47.562 19.3028H28.7711V21.3282H47.5623L47.562 19.3028ZM33.2181 16.5538C32.5965 16.5557 31.9773 16.478 31.3755 16.3226V14.6731H28.7711V18.1749C30.2218 18.5582 31.7177 18.7431 33.2181 18.7246V16.5538ZM33.7005 9.69594C34.2044 9.69438 34.7067 9.75275 35.1968 9.8698V11.5625H37.7869V8.17787C36.4592 7.79175 35.0843 7.5921 33.7016 7.58468L33.7005 9.69594ZM42.7822 10.4772V12.5027H44.1952V18.5799H48.1887V16.5538H47.3208V10.4772H42.7822ZM43.2596 16.5538C42.6301 16.5538 42.2998 16.3044 42.2998 15.5848V10.4772H38.5355V12.5027H39.1746V15.9464C39.1746 17.9287 40.0136 18.7253 41.779 18.7253C42.479 18.7378 43.162 18.5087 43.7128 18.0765V16.5538H43.2596ZM48.9122 12.5027H48.044V10.4772H52.0378V19.3035H53.2242V21.3289H48.044V19.3035H48.9122V12.5027ZM54.5264 18.7246C56.2625 18.7246 57.2173 17.8564 57.2173 15.6574V13.4001C57.2173 11.2005 56.2625 10.3326 54.5264 10.3326C53.7979 10.3251 53.0892 10.5695 52.5202 11.0245V12.5027H53.0404C53.6749 12.5027 54.0052 12.752 54.0052 13.4724V15.5848C54.0052 16.3059 53.6749 16.5538 53.0404 16.5538H52.5202V18.0324C53.0897 18.4864 53.7981 18.7308 54.5264 18.7246V18.7246ZM33.7005 18.7246C36.8257 18.7246 38.1895 17.5813 38.1895 15.8452V14.8323C38.1895 13.2555 37.4228 12.5315 35.5852 12.0399L32.6491 11.2439C32.1425 11.1136 31.9687 10.8538 31.9687 10.4772C31.9687 9.99949 32.2797 9.7102 33.2181 9.7102V7.58325C30.0519 7.58325 28.8003 8.69731 28.8003 10.6073V11.4175C28.8003 12.995 29.567 13.7183 31.4047 14.2103L34.2841 14.9916C34.8481 15.1362 34.9496 15.3535 34.9496 15.8021C34.9496 16.2791 34.6674 16.5538 33.7005 16.5538V18.7246Z" fill="white"/>
</svg>
